Newaita-dark/actions/16/zoom-out.svg

<?xml version="1.0" encoding="UTF-8"?>
<svg xmlns="http://www.w3.org/2000/svg" xmlns:xlink="http://www.w3.org/1999/xlink" width="16pt" height="16pt" viewBox="0 0 16 16" version="1.1">
<g id="surface1">
<path style=" stroke:none;fill-rule:evenodd;fill:rgb(47.058824%,56.470591%,61.176473%);fill-opacity:1;" d="M 7.277344 8.0625 L 1.984375 11.371094 L 0.660156 10.046875 L 0.660156 15.339844 L 5.953125 15.339844 L 4.628906 14.015625 L 7.9375 8.726562 Z M 7.277344 8.0625 "/>
<path style=" stroke:none;fill-rule:nonzero;fill:rgb(74.117649%,74.117649%,74.117649%);fill-opacity:1;" d="M 1.652344 0.785156 C 1.105469 0.785156 0.660156 1.230469 0.660156 1.777344 L 0.660156 8.0625 L 1.652344 8.0625 L 1.652344 2.769531 C 1.652344 2.40625 1.949219 2.109375 2.316406 2.109375 L 5.953125 2.109375 L 5.953125 0.785156 Z M 14.222656 10.046875 L 14.222656 13.6875 C 14.222656 14.050781 13.925781 14.347656 13.5625 14.347656 L 7.9375 14.347656 L 7.9375 15.339844 L 14.222656 15.339844 C 14.773438 15.339844 15.214844 14.898438 15.214844 14.347656 L 15.214844 10.046875 Z M 14.222656 10.046875 "/>
<path style=" stroke:none;fill-rule:nonzero;fill:rgb(74.117649%,74.117649%,74.117649%);fill-opacity:1;" d="M 10.253906 0.785156 C 9.703125 0.785156 9.261719 1.230469 9.261719 1.777344 L 9.261719 5.746094 C 9.261719 6.296875 9.703125 6.738281 10.253906 6.738281 L 14.222656 6.738281 C 14.773438 6.738281 15.214844 6.296875 15.214844 5.746094 L 15.214844 1.777344 C 15.214844 1.230469 14.773438 0.785156 14.222656 0.785156 Z M 10.914062 1.777344 L 13.5625 1.777344 C 13.925781 1.777344 14.222656 2.074219 14.222656 2.441406 L 14.222656 5.085938 C 14.222656 5.453125 13.925781 5.746094 13.5625 5.746094 L 10.914062 5.746094 C 10.546875 5.746094 10.253906 5.453125 10.253906 5.085938 L 10.253906 2.441406 C 10.253906 2.074219 10.546875 1.777344 10.914062 1.777344 Z M 10.914062 1.777344 "/>
</g>
</svg>

<svg xmlns="http://www.w3.org/2000/svg" width="16pt" height="16pt" viewBox="0 0 16 16"><path d="M7.277 8.063L1.984 11.37.66 10.047v5.293h5.293L4.63 14.016l3.309-5.29zm0 0" fill-rule="evenodd" fill="#78909c"/><path d="M1.652.785a.994.994 0 0 0-.992.992v6.285h.992V2.77c0-.364.297-.66.664-.66h3.637V.784zm12.57 9.262v3.64c0 .364-.296.66-.66.66H7.939v.993h6.285c.55 0 .992-.442.992-.992v-4.301zm0 0M10.254.785a.991.991 0 0 0-.992.992v3.97c0 .55.441.991.992.991h3.969c.55 0 .992-.441.992-.992V1.777a.991.991 0 0 0-.992-.992zm.66.992h2.649c.363 0 .66.297.66.664v2.645a.66.66 0 0 1-.66.66h-2.649a.657.657 0 0 1-.66-.66V2.44a.66.66 0 0 1 .66-.664zm0 0" fill="#bdbdbd"/></svg>
